packages/axiom-materials/src/icon_svgs/input.svg

<svg height="16" viewBox="0 0 16 16" width="16" xmlns="http://www.w3.org/2000/svg"><path d="m1 11h2v.1666667c0 .4602373.37309604.8333333.83333333.8333333h8.33333337c.4602373 0 .8333333-.373096.8333333-.8333333v-6.33333337c0-.46023729-.373096-.83333333-.8333333-.83333333h-8.33333337c-.46023729 0-.83333333.37309604-.83333333.83333333v.16666667h-2v-1c0-1.1045695.8954305-2 2-2h10c1.1045695 0 2 .8954305 2 2v8c0 1.1045695-.8954305 2-2 2h-10c-1.1045695 0-2-.8954305-2-2zm6-2h-6v-2h6v-2l3 3.0131956-3 2.9868044z" fill-rule="evenodd"/></svg>

<?xml version="1.0" encoding="UTF-8"?>
<svg width="16px" height="16px" viewBox="0 0 16 16" version="1.1" xmlns="http://www.w3.org/2000/svg" xmlns:xlink="http://www.w3.org/1999/xlink">
    <!-- Generator: Sketch 54.1 (76490) - https://sketchapp.com -->
    <title>Symbols/Icon/input Icon</title>
    <desc>Created with Sketch.</desc>
    <g id="Symbols/Icon/input-Icon" stroke="none" stroke-width="1" fill="none" fill-rule="evenodd">
        <path d="M1,11 L3,11 L3,11.1666667 C3,11.626904 3.37309604,12 3.83333333,12 L12.1666667,12 C12.626904,12 13,11.626904 13,11.1666667 L13,4.83333333 C13,4.37309604 12.626904,4 12.1666667,4 L3.83333333,4 C3.37309604,4 3,4.37309604 3,4.83333333 L3,5 L1,5 L1,4 C1,2.8954305 1.8954305,2 3,2 L13,2 C14.1045695,2 15,2.8954305 15,4 L15,12 C15,13.1045695 14.1045695,14 13,14 L3,14 C1.8954305,14 1,13.1045695 1,12 L1,11 Z M7,9 L1,9 L1,7 L7,7 L7,5 L10,8.0131956 L7,11 L7,9 Z" id="Combined-Shape" fill="#000000"></path>
    </g>
</svg>
